X: 3663
T: Billy Ballantine's
R: hornpipe
M: 4/4
K: Gminor
Bc|:d2fd edcB|GABG GFDF|~F2FD FGBc|~d2c2 c2Bc|
d2fd edcB|GABG GFDF|~F2FD FGBc|~d2BA B3c:|
|:d2d2 d2cd|e2e2 e2de|f2fg fdBc|dccB ccBc|
d2fd edcB|GABG GFDF|~F2FD FGBc|~d2BA B3c:|

